!!!SOCIAL_FUNCTION:	war songs
!!!PDT:	1929
!!!OTL: No_135_The_Little_Captive_Children.krn
!!!REG: Southwest
!!!LANG: Non-Tone
!!!LING_GROUP: Uto-Aztecan
**kern
*staff1
*clefF4
*k[f#c#g#d#a#]
*M2/4
8F#\
=1
4c#\
8c#\L
8B\J
=2||
*M5/8
8c#\L
[8c#\
8c#\]
8c#\
8c#\J
=3||
*M2/4
4d#\
4c#\
=4||
*M3/4
8c#\L
8B\J
8G#\L
16G#\L
16F#\JJ
8G#\L
16G#\L
16D#\JJ
=5
4.F#\
8F#\
8D#/L
16C#/Jk
16r
=6
4G#\
4B\
4G#\
=7
(4.B\
8G#\)
8B\L
8G#\J
=8
2F#\
8D#\
8r
=9
4G#\
4c#\
8B\L
8G#\J
=10||
*M5/8
(4.G#\
8D#\L)
8G#\J
=11
4.F#\
8D#\L
8F#\J
=12
2F#\
8r
=13||
*M2/4
8F#\L
8D#\J
8F#\L
8D#\J
=14
4.B\
8G#\
=15||
*M5/8
8D#\L
8D#\
8D#\
8G#\
8G#\J
=16
4.F#\
8D#/L
16C#/Jk
16r
=17||
*M2/4
4.F#\
8F#\
=18
2F#\
==
*-
